X:139
T:The Winding Stairs                                                                                
M:9/8                                                                                               
L:1/8                                                                                               
K:D                                                                                                 
EDE B2 G F2 G|E2 B B2 G AFD|EDE B2 G F2 B|AGA dBG AFD :|                                            
B2 e e2 d e2 d|B2 e e2 b afd|A2 d d2 c d2 B|AGA dBG AFD|                                            
Bcd e2 d e2 d|B2 e e2 a fdB|gab efg dcB|AGA dBG AFD |>|
